svg_80x80/cpp.svg

<svg viewBox="0 0 80 80" xmlns="http://www.w3.org/2000/svg">
<rect width="100%" height="100%" fill="white"/>
<path d="M69.0034 28.7994V51.2007C68.9955 52.8883 68.543 54.544 67.6913 56.0009L40.0017 40L67.6993 23.9991C68.5503 25.4559 69.0002 27.1122 69.0034 28.7994Z" fill="#00599C"/>
<path d="M67.6993 23.9991L40.0017 40L12.3281 56.0009C11.468 54.5467 11.0097 52.8901 11 51.2007V28.7994C11.0003 27.1144 11.4441 25.4592 12.2867 24.0001C13.1293 22.541 14.3411 21.3293 15.8003 20.4869L35.2014 9.28623C36.6609 8.44361 38.3164 8 40.0017 8C41.6869 8 43.3425 8.44361 44.802 9.28623L64.2031 20.4869C65.66 21.326 66.8668 22.5384 67.6993 23.9991Z" fill="#659AD2"/>
<path d="M40.0017 40L67.6913 56.0009C66.8501 57.4418 65.6478 58.6385 64.2031 59.4731L44.802 70.7138C43.3425 71.5564 41.687 72 40.0017 72C38.3165 72 36.6609 71.5564 35.2014 70.7138L15.8003 59.5131C14.3635 58.6807 13.1672 57.4899 12.3281 56.0569L40.0017 40Z" fill="#004482"/>
<path d="M57.4346 38.7999H59.4428V41.2321H57.4346V43.2402H54.9945V41.2321H52.9944V38.7999H54.9945V36.7918H57.4346V38.7999ZM65.2831 38.7999H67.2832V41.2321H65.2831V43.2402H62.843V41.2321H60.8428V38.7999H62.843V36.7918H65.2831V38.7999Z" fill="white"/>
<path d="M56.8026 49.7205C54.6671 53.4112 51.3739 56.2945 47.4333 57.9234C43.4927 59.5523 39.1249 59.836 35.0067 58.7304C30.8885 57.6249 27.25 55.1918 24.6551 51.8084C22.0601 48.4249 20.6537 44.28 20.6537 40.016C20.6537 35.752 22.0601 31.6071 24.6551 28.2236C27.25 24.8401 30.8885 22.4071 35.0067 21.3015C39.1249 20.196 43.4927 20.4796 47.4333 22.1086C51.3739 23.7375 54.6671 26.6207 56.8026 30.3114L48.3061 35.1997C48.1941 35.0024 48.0741 34.8103 47.9461 34.6237C46.7817 32.8949 45.0863 31.592 43.116 30.9119C41.1457 30.2318 39.0076 30.2113 37.0247 30.8537C35.0418 31.496 33.3218 32.7662 32.1246 34.4724C30.9273 36.1786 30.3179 38.2282 30.3883 40.3113C30.4587 42.3945 31.2052 44.3982 32.5149 46.0196C33.8246 47.6411 35.6265 48.7923 37.6483 49.2992C39.67 49.8062 41.8019 49.6414 43.7217 48.8298C45.6416 48.0181 47.2451 46.6037 48.2901 44.8003L56.8026 49.7205Z" fill="white"/>
</svg>

<svg xmlns="http://www.w3.org/2000/svg" viewBox="0 0 80 80">
  <rect width="100%" height="100%" fill="#fff"/>
  <path fill="#00599C" d="M69 28.8v22.4c0 1.7-.5 3.3-1.3 4.8L40 40l27.7-16a9.6 9.6 0 0 1 1.3 4.8Z"/>
  <path fill="#659AD2" d="M67.7 24 40 40 12.3 56a9.5 9.5 0 0 1-1.3-4.8V28.8a9.6 9.6 0 0 1 4.8-8.3L35.2 9.3a9.6 9.6 0 0 1 9.6 0l19.4 11.2c1.5.8 2.7 2 3.5 3.5Z"/>
  <path fill="#004482" d="m40 40 27.7 16c-.8 1.4-2 2.6-3.5 3.5L44.8 70.7a9.6 9.6 0 0 1-9.6 0L15.8 59.5c-1.4-.8-2.6-2-3.5-3.4L40 40Z"/>
  <path fill="#fff" d="M57.4 38.8h2v2.4h-2v2H55v-2h-2v-2.4h2v-2h2.4v2Zm7.9 0h2v2.4h-2v2h-2.5v-2h-2v-2.4h2v-2h2.5v2Z"/>
  <path fill="#fff" d="M56.8 49.7a19.4 19.4 0 1 1 0-19.4l-8.5 4.9a9.6 9.6 0 1 0 0 9.6l8.5 5Z"/>
</svg>
